!!!!SEGMENT: pl-cz--iii-572--001_rygall-ignacy--salve-regina-salve-regina.krn
!!!cenid: 18xx:1027
!!!COM: Rygall, Ignacy
!!!COM-rismid: pe30110281
!!!CDT: <1750->1799
!!!CNT:
!!!OPR: Salve Regina
!!!OTL: Salve Regina
!!!OMV: 001
!!!PDT:
!!!AGN: Sacred
!!!SMS-siglum: PL-CZ
!!!SMS-shelfmark: III-572
!!!SMS-shelfwork: 001-001 M
!!!SMS-variant:
!!!SMS-altvar:
!!!NIFC-rismid: 300001134
!!!URL-scan: http://repozytorium.nifc.pl/skany/pl-cz-nut--iii-572
!!!ONB-nifc: UWAGA: części Salve Regina: Salve Regina, Ad te suspiramus, Eia ergo, O clemens o pia
!!!key: F
**kern	**dynam	**kern	**dynam	**kern	**dynam	**kern	**dynam	**kern	**text	**kern	**dynam	**kern	**dynam
*group3	*	*group3	*	*group3	*	*group3	*	*group2	*	*group1	*	*group1	*
*part7	*part7	*part6	*part6	*part5	*part5	*part4	*part4	*part3	*part3	*part2	*part2	*part1	*part1
*staff7	*	*staff6	*	*staff5	*	*staff4	*	*staff3	*staff3	*staff2	*	*staff1	*
*I"Baſso	*	*I"Viola di Praza	*	*I"Violino Secondo	*	*I"Violino 1mo	*	*I"Soprano Solo	*	*I"Corno 2do in F	*	*I"Corno 1mo in F	*
*I'[Cb]	*	*I'[Vla]	*	*I'[Vl 2]	*	*I'[Vl 1]	*	*I'[S]	*	*I'[Cor 2 in F]	*	*I'[Cor 1 in F]	*
*Icbass	*	*Iviola	*	*Ivioln	*	*Ivioln	*	*Isoprn	*	*Icor	*	*Icor	*
*ICstr	*	*ICstr	*	*ICstr	*	*ICstr	*	*ICvox	*	*ICbras	*	*ICbras	*
*IGacmp	*	*IGacmp	*	*IGacmp	*	*IGacmp	*	*IGsolo	*	*IGacmp	*	*IGacmp	*
*clefF4	*	*clefC3	*	*clefG2	*	*clefG2	*	*clefC1	*	*clefG2	*	*clefG2	*
*ITrd0c0	*	*	*	*	*	*	*	*	*	*ITrd4c7	*	*ITrd4c7	*
*k[b-]	*	*k[b-]	*	*k[b-]	*	*k[b-]	*	*k[b-]	*	*k[b-]	*	*k[b-]	*
*F:	*	*F:	*	*F:	*	*F:	*	*F:	*	*F:	*	*F:	*
*M4/4	*	*M4/4	*	*M4/4	*	*M4/4	*	*M4/4	*	*M4/4	*	*M4/4	*
*met(c)	*	*met(c)	*	*met(c)	*	*met(c)	*	*met(c)	*	*met(c)	*	*met(c)	*
=1	=1	=1	=1	=1	=1	=1	=1	=1	=1	=1	=1	=1	=1
!!mixed beam:problem
!LO:TX:a:B:t=allo molto	!	!LO:TX:t=P:problem=mixed beam	!	!	!	!LO:TX:t=P:problem=all\right&colon; global	!	!LO:TX:b:t=17.	!	!LO:TX:t=P:problem=all\right&colon; global	!	!LO:TX:a:B:t=allo	!
!!mixed beam:problem
*	*	*	*	*	*	*	*	*	*	*	*	*2\right	*
!LO:TX:t=P:problem=mixed beam	!LO:DY:b:rj:t=p&colon;	!LO:TX:a:B:t=allo	!LO:DY:b:t=piano	!LO:TX:a:B:t=allo molto	!LO:DY:b:rj:t=p&colon;	!LO:TX:a:B:t=allo Molto	!LO:DY:b:rj:t=p.	!LO:TX:a:B:t=Allo molto	!	!LO:TX:a:t=all(egr)o molto	!	!LO:TX:t=P:problem=all\middle&colon; global	!
8FF/L	p	8F/L	p	2A/	p	2f/	p	1r	.	2A/	.	2f\	.
8F\	.	8f\	.	.	.	.	.	.	.	.	.	.	.
8FF/	.	8F/	.	.	.	.	.	.	.	.	.	.	.
8F\J	.	8f\J	.	.	.	.	.	.	.	.	.	.	.
!!mixed beam:problem
!LO:TX:t=P:problem=mixed beam	!	!LO:TX:t=P:problem=mixed beam	!	!	!	!	!	!	!	!	!	!	!
8FF/L	.	8F/L	.	4B-/	.	4g/	.	.	.	4c/	.	4g\	.
8F\	.	8f\	.	.	.	.	.	.	.	.	.	.	.
8FF/	.	8F/	.	4c/	.	4a/	.	.	.	4f\	.	4a\	.
8F\J	.	8f\J	.	.	.	.	.	.	.	.	.	.	.
=2	=2	=2	=2	=2	=2	=2	=2	=2-	=2	=2	=2	=2	=2
!!mixed beam:problem
!LO:TX:t=P:problem=mixed beam	!	!LO:TX:t=P:problem=mixed beam	!	!	!	!	!	!	!	!	!	!	!
.	.	.	.	8qqe/	.	.	.	.	.	.	.	.	.
!	!	!	!	!	!	!LO:TX:a:t=P:problem=♭ above	!	!	!	!	!	!	!
8FF/L	.	8F/L	.	4d/	.	4b-X\	.	1r	.	4g\	.	4b-\	.
8F\	.	8f\	.	.	.	.	.	.	.	.	.	.	.
8FF/	.	8F/	.	4c/	.	4b-\	.	.	.	4f\	.	4a\	.
8F\J	.	8f\J	.	.	.	.	.	.	.	.	.	.	.
!!mixed beam:problem
!LO:TX:t=P:problem=mixed beam	!	!LO:TX:t=P:problem=mixed beam	!	!	!	!	!	!	!	!	!	!	!
8FF/L	.	8F/L	.	2r	.	2r	.	.	.	2r	.	2r	.
8F\	.	8f\	.	.	.	.	.	.	.	.	.	.	.
8FF/	.	8F/	.	.	.	.	.	.	.	.	.	.	.
8F\J	.	8f\J	.	.	.	.	.	.	.	.	.	.	.
=3	=3	=3	=3	=3	=3	=3	=3	=3-	=3	=3	=3	=3	=3
*	*	*	*	*	*	*	*	*	*	*2\right	*	*	*
!LO:TX:t=P:problem=brak taktu	!	!LO:TX:t=P:problem=brak taktu	!	!	!	!	!	!	!	!	!	!	!
1ryy	.	1ryy	.	2f/	.	2a/	.	1r	.	2f\	.	2a\	.
.	.	.	.	4g/	.	4b-\	.	.	.	4g\	.	4b-\	.
.	.	.	.	4a/	.	4cc\	.	.	.	4a\	.	4cc\	.
=4	=4	=4	=4	=4	=4	=4	=4	=4-	=4	=4	=4	=4	=4
!!mixed beam:problem
!LO:TX:t=P:problem=mixed beam	!	!LO:TX:t=P:problem=mixed beam	!	!	!	!	!	!	!	!	!	!	!
.	.	.	.	8qqcc/	.	8qqee/	.	.	.	.	.	.	.
8FF/L	.	8F/L	.	4b-\	.	4dd\	.	1r	.	4b-\	.	4dd\	.
8F\	.	8f\	.	.	.	.	.	.	.	.	.	.	.
8FF/	.	8F/	.	4a\	.	4cc\	.	.	.	4a\	.	4cc\	.
8F\J	.	8f\J	.	.	.	.	.	.	.	.	.	.	.
4FF/	.	4F/	.	4r	.	8r	.	.	.	2r	.	2r	.
!	!	!	!	!	!	!LO:TX:a:t=|:problem	!LO:DY:b	!	!	!	!	!	!
.	.	.	.	.	.	8ff\L	f	.	.	.	.	.	.
!	!	!	!	!	!	!LO:TX:a:t=|:problem	!	!	!	!	!	!	!
4r	.	4r	.	4r	.	8ff\	.	.	.	.	.	.	.
!	!	!	!	!	!	!LO:TX:a:t=|:problem	!	!	!	!	!	!	!
.	.	.	.	.	.	8ff\J	.	.	.	.	.	.	.
!	!	!	!	!	!	!LO:LB:g=original	!	!	!	!	!	!	!
=5	=5	=5	=5	=5	=5	=5	=5	=5-	=5	=5	=5	=5	=5
!!mixed beam:problem
!	!LO:DY:b:t=for	!	!LO:DY:b:t=f&colon;	!LO:TX:b:t=|:problem	!LO:DY:b:rj:t=f&colon;	!LO:TX:t=P:problem=mixed beam	!	!	!	!	!	!	!
8BB-/L	f	8B-/L	f	8d/L	f	(<8ff\L	.	1r	.	1r	.	1r	.
!	!	!	!	!LO:TX:b:t=|:problem	!	!	!	!	!	!	!	!	!
8BB-/	.	8B-/	.	8d/	.	8g/)	.	.	.	.	.	.	.
!	!	!	!	!LO:TX:b:t=|:problem	!	!	!	!	!	!	!	!	!
8C/	.	8c/	.	8e/	.	(<8g/	.	.	.	.	.	.	.
!	!	!	!	!LO:TX:b:t=|:problem	!	!	!	!	!	!	!	!	!
8C/J	.	8c/J	.	8e/J	.	8a/J)	.	.	.	.	.	.	.
!	!	!	!	!LO:TX:b:t=|:problem	!	!	!	!	!	!	!	!	!
8D\L	.	8d\L	.	8f/L	.	8.b-\L	.	.	.	.	.	.	.
!	!	!	!	!LO:TX:b:t=|:problem	!	!	!	!	!	!	!	!	!
8D\	.	8d\	.	8f/	.	.	.	.	.	.	.	.	.
.	.	.	.	.	.	32a\LL	.	.	.	.	.	.	.
.	.	.	.	.	.	32b-\JJJ	.	.	.	.	.	.	.
!	!	!	!	!LO:TX:b:t=|:problem	!	!	!	!	!	!	!	!	!
8E\	.	8e\	.	8g/	.	8cc\L	.	.	.	.	.	.	.
!	!	!	!	!LO:TX:b:t=|:problem	!	!	!	!	!	!	!	!	!
8E\J	.	8e\J	.	8g/J	.	8b-\J	.	.	.	.	.	.	.
=6	=6	=6	=6	=6	=6	=6	=6	=6-	=6	=6	=6	=6	=6
.	.	.	.	.	.	8qqcc/	.	.	.	.	.	.	.
4C\	.	4c\	.	4g/	.	4b-\	.	1r	.	4g\	.	4b-\	.
4F\	.	4r	.	4f/	.	4a\	.	.	.	4f\	.	4a\	.
!	!	!	!	!LO:LB:g=original	!	!	!	!	!	!	!	!	!
4FF/	.	4f\	.	2r	.	8r	.	.	.	2r	.	2r	.
.	.	.	.	.	.	8ff\L	.	.	.	.	.	.	.
4r	.	4r	.	.	.	8ff\	.	.	.	.	.	.	.
.	.	.	.	.	.	8ff\J	.	.	.	.	.	.	.
!LO:LB:g=original	!	!LO:LB:g=original	!	!	!	!	!	!	!	!	!	!	!
=7	=7	=7	=7	=7	=7	=7	=7	=7-	=7	=7	=7	=7	=7
!	!	!	!	!	!LO:DY:b:t=for	!	!	!	!	!	!	!	!
4B-\	.	4G/	.	4B-/	f	4g/	.	1r	.	4r	.	4r	.
!	!	!	!	!LO:TX:b:t=|:problem	!	!	!	!	!	!	!	!	!
4B-\	.	4B-/	.	8d/L	.	(<8b-/L	.	.	.	4g\	.	4b-\	.
.	.	.	.	(<16c/L	.	8g/J)	.	.	.	.	.	.	.
.	.	.	.	16B-/JJ)	.	.	.	.	.	.	.	.	.
4c\	.	4c/	.	(<8B-/L	.	8g/L	.	.	.	4f\	.	4a\	.
.	.	.	.	8A/)	.	8f/	.	.	.	.	.	.	.
4C/	.	4c/	.	(<8A/	.	8f/	.	.	.	4c/	.	4g\	.
.	.	.	.	8G/J)	.	8e/J	.	.	.	.	.	.	.
!	!	!	!	!	!	!	!	!	!	!	!	!LO:LB:g=original	!
=8	=8	=8	=8	=8	=8	=8	=8	=8-	=8	=8	=8	=8	=8
!LO:TX:a:t=|:problem	!LO:DY:b:t=mezo for	!	!	!	!	!	!	!	!	!	!	!	!
8F\L	mf	4F/	.	4A/	.	4f/	.	1r	.	4A/	.	4f\	.
!LO:TX:a:t=|:problem	!	!	!	!	!	!	!	!	!	!	!	!	!
8C\	.	.	.	.	.	.	.	.	.	.	.	.	.
!LO:TX:a:t=|:problem	!	!	!	!	!	!	!	!	!	!	!	!	!
8F\	.	4r	.	4r	.	4r	.	.	.	8A/L	.	8f\L	.
!LO:TX:a:t=|:problem	!	!	!	!	!	!	!	!	!	!	!	!	!
8C\J	.	.	.	.	.	.	.	.	.	8A/J	.	8f\J	.
!LO:TX:a:t=|:problem	!	!	!	!	!	!	!	!	!	!	!	!	!
8F\L	.	2r	.	8r	.	8r	.	.	.	4A/	.	4f\	.
!LO:TX:a:t=|:problem	!	!	!	!LO:TX:a:t=|:problem	!	!	!	!	!	!	!	!	!
8C\	.	.	.	8cc\L	.	8ccc\L	.	.	.	.	.	.	.
!LO:TX:a:t=|:problem	!	!	!	!LO:TX:a:t=|:problem	!	!	!	!	!	!	!	!	!
8F\	.	.	.	8cc\	.	8ccc\	.	.	.	4r	.	4r	.
!LO:TX:a:t=|:problem	!	!	!	!LO:TX:a:t=|:problem	!	!	!	!	!	!	!	!	!
8C\J	.	.	.	8cc\J	.	8ccc\J	.	.	.	.	.	.	.
!	!	!	!	!	!	!	!	!	!	!LO:LB:g=original	!	!	!
=9	=9	=9	=9	=9	=9	=9	=9	=9-	=9	=9	=9	=9	=9
!	!	!	!LO:DY:b:t=mezo for	!	!LO:DY:b:rj:t=mezo for	!	!	!	!	!	!	!	!
8G\L	.	1c	mf	(>8cc\L	mf	(>8ccc\L	.	1r	.	2c\	.	2g\	.
8C\	.	.	.	8b-\)	.	8bb-\)	.	.	.	.	.	.	.
8G\	.	.	.	(>8a\	.	(>8aa\	.	.	.	.	.	.	.
8C\J	.	.	.	8g\J)	.	8gg\J)	.	.	.	.	.	.	.
!	!	!	!	!	!	!LO:LB:g=original	!	!	!	!	!	!	!
8B-\L	.	.	.	(<8f/L	.	8ff\L	.	.	.	2r	.	2r	.
8C\	.	.	.	8e/)	.	8ee\	.	.	.	.	.	.	.
8B-\	.	.	.	(<8d/	.	8dd\	.	.	.	.	.	.	.
8C\J	.	.	.	8c/J)	.	8cc\J	.	.	.	.	.	.	.
=10	=10	=10	=10	=10	=10	=10	=10	=10-	=10	=10	=10	=10	=10
8A\L	.	1c	.	(<4.f/	.	4.ff\	.	1r	.	2f\	.	2a\	.
8C\	.	.	.	.	.	.	.	.	.	.	.	.	.
8A\	.	.	.	.	.	.	.	.	.	.	.	.	.
8C\J	.	.	.	16g/LL	.	16gg\LL	.	.	.	.	.	.	.
.	.	.	.	16a/JJ)	.	16aa\JJ	.	.	.	.	.	.	.
!	!	!	!	!LO:TX:b:t=|:problem	!	!	!	!	!	!	!	!	!
8E\L	.	.	.	8g/L	.	8gg\L	.	.	.	4c\	.	4g\	.
!	!	!	!	!LO:TX:b:t=|:problem	!	!	!	!	!	!	!	!	!
8C\	.	.	.	8cc/	.	8ccc'>\	.	.	.	.	.	.	.
!	!	!	!	!LO:TX:b:t=|:problem	!	!	!	!	!	!	!	!	!
8E\	.	.	.	8cc/	.	8ccc'>\	.	.	.	4r	.	4r	.
!	!	!	!	!LO:TX:b:t=|:problem	!	!	!	!	!	!	!	!	!
8C\J	.	.	.	8cc/J	.	8ccc'>\J	.	.	.	.	.	.	.
=11	=11	=11	=11	=11	=11	=11	=11	=11-	=11	=11	=11	=11	=11
8G\L	.	1c	.	(>8cc\L	.	(>8ccc\L	.	1r	.	2c\	.	2g\	.
8C\	.	.	.	8b-\)	.	8bb-T>\)	.	.	.	.	.	.	.
8G\	.	.	.	(>8a\	.	(>8aa\	.	.	.	.	.	.	.
8C\J	.	.	.	8g\J)	.	8ggT>\J)	.	.	.	.	.	.	.
8B-\L	.	.	.	(<8f/L	.	(>8ff\L	.	.	.	2r	.	2r	.
8C\	.	.	.	8e/)	.	8eet>\)	.	.	.	.	.	.	.
8B-\	.	.	.	(<8d/	.	(>8dd\	.	.	.	.	.	.	.
8C\J	.	.	.	8c/J)	.	8ccT\J)	.	.	.	.	.	.	.
=12	=12	=12	=12	=12	=12	=12	=12	=12-	=12	=12	=12	=12	=12
!	!	!	!	!LO:TX:b:t=|:problem	!	!	!	!	!	!	!	!	!
8A\L	.	1c	.	4.f/	.	4.ff\	.	1r	.	2f\	.	2a\	.
8C\	.	.	.	.	.	.	.	.	.	.	.	.	.
8A\	.	.	.	.	.	.	.	.	.	.	.	.	.
8C\J	.	.	.	(>16g/LL	.	16gg\LL	.	.	.	.	.	.	.
.	.	.	.	16a/JJ)	.	16aa\JJ	.	.	.	.	.	.	.
!	!	!	!	!LO:TX:b:t=|:problem	!	!	!	!	!	!	!	!	!
8E\L	.	.	.	8g/	.	8gg\L	.	.	.	4c\	.	4g\	.
!	!	!	!	!LO:TX:a:t=|:problem	!	!	!	!	!	!	!	!	!
8C\	.	.	.	8cc\L	.	8ccc'>\	.	.	.	.	.	.	.
!	!	!	!	!LO:TX:a:t=|:problem	!	!	!	!	!	!	!	!	!
8E\	.	.	.	8cc\	.	8ccc'>\	.	.	.	4r	.	4r	.
!	!	!	!	!LO:TX:aa:t=|:problem	!	!	!	!	!	!	!	!	!
8C\J	.	.	.	8cc\J	.	8ccc'>\J	.	.	.	.	.	.	.
!	!	!	!	!LO:LB:g=original	!	!	!	!	!	!	!	!	!
=13	=13	=13	=13	=13	=13	=13	=13	=13-	=13	=13	=13	=13	=13
8G\L	.	1c	.	(>8cc\L	.	(>8ccc\L	.	1r	.	2c\	.	2g\	.
8C\	.	.	.	8b-\)	.	8bb-\)	.	.	.	.	.	.	.
8G\	.	.	.	(>8a\	.	(>8aa\	.	.	.	.	.	.	.
8C\J	.	.	.	8g\J)	.	8gg\J)	.	.	.	.	.	.	.
8B-\L	.	.	.	(<8f/L	.	(>8ff\L	.	.	.	2r	.	2r	.
8C\	.	.	.	8e/)	.	8ee\)	.	.	.	.	.	.	.
8B-\	.	.	.	(<8d/	.	(>8dd\	.	.	.	.	.	.	.
8C\J	.	.	.	8c/J)	.	8cc\J)	.	.	.	.	.	.	.
!LO:LB:g=original	!	!	!	!	!	!LO:LB:g=original	!	!	!	!	!	!	!
=14	=14	=14	=14	=14	=14	=14	=14	=14-	=14	=14	=14	=14	=14
*tremolo	*	*tremolo	*	*tremolo	*	*	*	*	*	*	*	*	*
*2\right	*	*2\right	*	*	*	*	*	*	*	*	*	*	*
!	!LO:DY:b:t=f&colon;	!	!LO:DY:b:t=for	!	!LO:DY:b:t=forte	!	!	!	!	!	!	!	!
8A\L	f	8c\L	f	8f/L	ff	(>16ff\LL	.	1r	.	2B-/	.	4f\	.
.	.	.	.	.	.	16gg\)	.	.	.	.	.	.	.
8A\	.	8c\	.	8f/	.	(>16ff\	.	.	.	.	.	.	.
.	.	.	.	.	.	16gg\JJ)	.	.	.	.	.	.	.
8A\	.	8c\	.	8f/	.	(>16aa\LL	.	.	.	.	.	4r	.
.	.	.	.	.	.	16bb-\)	.	.	.	.	.	.	.
8A\J	.	8c\J	.	8f/J	.	(>16aa\	.	.	.	.	.	.	.
.	.	.	.	.	.	16bb-\JJ)	.	.	.	.	.	.	.
8A\L	.	8c\L	.	8f/L	.	(>16ddd\LL	.	.	.	2r	.	2r	.
.	.	.	.	.	.	16ccc\)	.	.	.	.	.	.	.
8A\	.	8c\	.	8f/	.	(>16bb-\	.	.	.	.	.	.	.
.	.	.	.	.	.	16aa\JJ)	.	.	.	.	.	.	.
8A\	.	8c\	.	8f/	.	16gg\LL	.	.	.	.	.	.	.
.	.	.	.	.	.	16ff\	.	.	.	.	.	.	.
8A\J	.	8c\J	.	8f/J	.	16ee-X\	.	.	.	.	.	.	.
.	.	.	.	.	.	16ff\JJ	.	.	.	.	.	.	.
=15	=15	=15	=15	=15	=15	=15	=15	=15-	=15	=15	=15	=15	=15
8B-\L	.	8d\L	.	8f/L	.	8dd\L	.	1r	.	1r	.	1r	.
8B-\	.	8d\	.	8f/	.	16ee\L	.	.	.	.	.	.	.
.	.	.	.	.	.	16ff#X\JJ	.	.	.	.	.	.	.
8B-\	.	8d\	.	8f/	.	16gg\LL	.	.	.	.	.	.	.
.	.	.	.	.	.	16aa\	.	.	.	.	.	.	.
8B-\J	.	8d\J	.	8f/J	.	16bb-\	.	.	.	.	.	.	.
.	.	.	.	.	.	16ccc\JJ	.	.	.	.	.	.	.
*Xtremolo	*	*Xtremolo	*	*Xtremolo	*	*	*	*	*	*	*	*	*
4B-\	.	4d\	.	4f/	.	4ddd\	.	.	.	.	.	.	.
4r	.	4r	.	4r	.	4r	.	.	.	.	.	.	.
=16	=16	=16	=16	=16	=16	=16	=16	=16-	=16	=16	=16	=16	=16
*	*	*	*	*	*	*2\right	*	*	*	*	*	*	*
*tremolo	*	*tremolo	*	*tremolo	*	*tremolo	*	*	*	*	*	*	*
8c\L	.	8c\L	.	16A/LL	.	16ff\LL	.	1r	.	2f\	.	2a\	.
.	.	.	.	16A/	.	16ff\	.	.	.	.	.	.	.
8c\	.	8c\	.	16A/	.	16ff\	.	.	.	.	.	.	.
.	.	.	.	16A/	.	16ff\	.	.	.	.	.	.	.
8c\	.	8c\	.	16A/	.	16ff\	.	.	.	.	.	.	.
.	.	.	.	16A/	.	16ff\	.	.	.	.	.	.	.
8c\J	.	8c\J	.	16A/	.	16ff\	.	.	.	.	.	.	.
.	.	.	.	16A/JJ	.	16ff\JJ	.	.	.	.	.	.	.
8C/L	.	8G/L	.	16B-/LL	.	16ff\LL	.	.	.	2c\	.	2g\	.
.	.	.	.	16B-/	.	16ff\	.	.	.	.	.	.	.
8C/	.	8G/	.	16B-/	.	16ff\	.	.	.	.	.	.	.
.	.	.	.	16B-/	.	16ff\JJ	.	.	.	.	.	.	.
8C/	.	8G/	.	16B-/	.	16ee\LL	.	.	.	.	.	.	.
.	.	.	.	16B-/	.	16ee\	.	.	.	.	.	.	.
8C/J	.	8G/J	.	16B-/	.	16ee\	.	.	.	.	.	.	.
.	.	.	.	16B-/JJ	.	16ee\JJ	.	.	.	.	.	.	.
*Xtremolo	*	*Xtremolo	*	*Xtremolo	*	*Xtremolo	*	*	*	*	*	*	*
!	!	!	!	!	!	!	!	!	!	!	!	!LO:LB:g=original	!
=17	=17	=17	=17	=17	=17	=17	=17	=17-	=17	=17	=17	=17	=17
4F\	.	4F'</	.	4a\	.	4ff\	.	1r	.	4A/	.	4f\	.
8FF/L	.	8F/L	.	8a\L	.	8ff\L	.	.	.	8A/L	.	8f\L	.
8FF/J	.	8F/J	.	8cc\J	.	8aa\J	.	.	.	8A/J	.	8f\J	.
4FF/	.	4F/	.	4a\	.	4ff\	.	.	.	4A/	.	4f\	.
4r	.	4r	.	4r	.	4r	.	.	.	4r	.	4r	.
!	!	!LO:LB:g=original	!	!	!	!LO:LB:g=original	!	!	!	!	!	!	!
=18	=18	=18	=18	=18	=18	=18	=18	=18	=18	=18	=18	=18	=18
!!mixed beam:problem
!LO:TX:t=P:problem=mixed beam	!LO:DY:b:t=piani	!LO:TX:t=P:problem=mixed beam	!LO:DY:b:t=p&colon;	!	!LO:DY:a:t=pianis	!	!LO:DY:b:t=p.	!	!	!	!LO:DY:b:t=p&colon;	!	!LO:DY:b:rj:t=p&colon;
8FF/L	p	8F/L	p	2A:/	pp	2f/	p	2f/	Sal-	2A/	p	2f\	p
8F\	.	8f\	.	.	.	.	.	.	.	.	.	.	.
8FF/	.	8F/	.	.	.	.	.	.	.	.	.	.	.
8F\J	.	8f\J	.	.	.	.	.	.	.	.	.	.	.
!!mixed beam:problem
!LO:TX:t=P:problem=mixed beam	!	!LO:TX:t=P:problem=mixed beam	!	!	!	!	!	!	!	!	!	!	!
8FF/L	.	8F/L	.	4B-/	.	4g/	.	4g/	-ve	4c/	.	4g\	.
8F\	.	8f\	.	.	.	.	.	.	.	.	.	.	.
8FF/	.	8F/	.	4c/	.	4a/	.	4a/	Re-	4f\	.	4a\	.
8F\J	.	8f\J	.	.	.	.	.	.	.	.	.	.	.
!	!	!	!	!	!	!	!	!	!	!LO:LB:g=original	!	!	!
=19	=19	=19	=19	=19	=19	=19	=19	=19	=19	=19	=19	=19	=19
!!mixed beam:problem
!LO:TX:t=P:problem=mixed beam	!	!LO:TX:t=P:problem=mixed beam	!	!	!	!	!	!	!	!	!	!	!
.	.	.	.	8qqe/	.	8qqcc/	.	8qqcc/	.	.	.	.	.
8FF/L	.	8F/L	.	4d/	.	4.b-/	.	4b-\	-gi-	4g\	.	4b-\	.
8F\	.	8f\	.	.	.	.	.	.	.	.	.	.	.
8FF/	.	8F/	.	4c/	.	.	.	4a\	-na	4f\	.	4a\	.
8F\J	.	8f\J	.	.	.	16a/LL	.	.	.	.	.	.	.
.	.	.	.	.	.	16b-/JJ	.	.	.	.	.	.	.
!!mixed beam:problem
!LO:TX:t=P:problem=mixed beam	!	!LO:TX:t=P:problem=mixed beam	!	!	!	!	!	!	!	!	!	!	!
8FF/L	.	8F/L	.	2r	.	4a/	.	2r	.	2r	.	2r	.
8F\	.	8f\	.	.	.	.	.	.	.	.	.	.	.
8FF/	.	8F/	.	.	.	4r	.	.	.	.	.	.	.
8F\J	.	8f\J	.	.	.	.	.	.	.	.	.	.	.
!	!	!	!	!LO:LB:g=original	!	!	!	!	!	!	!	!	!
=20	=20	=20	=20	=20	=20	=20	=20	=20	=20	=20	=20	=20	=20
!!mixed beam:problem
!LO:TX:t=P:problem=mixed beam	!	!LO:TX:t=P:problem=mixed beam	!	!	!	!	!	!	!	!	!	!	!
*	*	*	*	*	*	*	*	*2\right	*	*	*	*	*
8FF/L	.	8F/L	.	2f/	.	2a/	.	2at>\	Sal-	2f\	.	2a\	.
8F\	.	8f\	.	.	.	.	.	.	.	.	.	.	.
8FF/	.	8F/	.	.	.	.	.	.	.	.	.	.	.
8F\J	.	8f\J	.	.	.	.	.	.	.	.	.	.	.
!!mixed beam:problem
!LO:TX:t=P:problem=mixed beam	!	!LO:TX:t=P:problem=mixed beam	!	!	!	!	!	!	!	!	!	!	!
8FF/L	.	8F/L	.	4g/	.	4b-\	.	4b-\	-ve	4g\	.	4b-\	.
8F\	.	8f\	.	.	.	.	.	.	.	.	.	.	.
8FF/	.	8F/	.	4a/	.	4cc\	.	4cc\	Re-	4a\	.	4cc\	.
8F\J	.	8f\J	.	.	.	.	.	.	.	.	.	.	.
!LO:LB:g=original	!	!	!	!	!	!	!	!	!	!	!	!	!
=21	=21	=21	=21	=21	=21	=21	=21	=21	=21	=21	=21	=21	=21
!!mixed beam:problem
!	!	!LO:TX:t=P:problem=mixed beam	!	!	!	!	!	!	!	!	!	!	!
!	!	!LO:TX:t=P:problem=takt powtórzony przez repetycję	!	!	!	!	!	!	!	!	!	!	!
.	.	.	.	.	.	8qqee/	.	8qqee/	.	.	.	.	.
8FF/L	.	8F/Lyy	.	4.b-\	.	8.dd\L	.	4dd\	-gi-	4b-\	.	4dd\	.
!!mixed beam:problem
!LO:TX:t=P:problem=mixed beam	!	!	!	!	!	!	!	!	!	!	!	!	!
8F\	.	8f\yy	.	.	.	.	.	.	.	.	.	.	.
!	!	!	!	!	!	!LO:TX:t=P:problem=rytm o=2x16	!	!	!	!	!	!	!
.	.	.	.	.	.	32cc\LL	.	.	.	.	.	.	.
.	.	.	.	.	.	32dd\JJJ	.	.	.	.	.	.	.
8FF/	.	8F/yy	.	.	.	4cc\	.	4cc\	-na	4a\	.	4cc\	.
8F\J	.	8f\Jyy	.	16a\LL	.	.	.	.	.	.	.	.	.
.	.	.	.	16b-\JJ	.	.	.	.	.	.	.	.	.
!!mixed beam:problem
!LO:TX:t=P:problem=mixed beam	!	!LO:TX:t=P:problem=mixed beam	!	!	!	!	!	!	!	!	!	!	!
8FF/L	.	8F/Lyy	.	4a\	.	8r	.	4r	.	2r	.	2r	.
8F\	.	8f\yy	.	.	.	8ff\L	.	.	.	.	.	.	.
8FF/	.	8F/yy	.	4r	.	8ff\	.	8r	.	.	.	.	.
8F\J	.	8f\Jyy	.	.	.	8ff\J	.	[>8ff\	Ma-	.	.	.	.
=22	=22	=22	=22	=22	=22	=22	=22	=22	=22	=22	=22	=22	=22
!!mixed beam:problem
!	!	!	!	!LO:TX:b:t=|:problem	!	!LO:TX:t=P:problem=mixed beam	!	!	!	!	!	!	!
8BB-/L	.	8B-/L	.	8d/L	.	(<8ff\L	.	(>8ff\L]	.	2r	.	2r	.
!	!	!	!	!LO:TX:b:t=|:problem	!	!	!	!	!	!	!	!	!
8BB-/	.	8B-/	.	8d/	.	8g/)	.	8g\J)	.	.	.	.	.
!	!	!	!	!LO:TX:b:t=|:problem	!	!	!	!	!	!	!	!	!
8C/	.	8c/	.	8e/	.	(<8g/	.	8g\	-ter	.	.	.	.
!	!	!	!	!LO:TX:b:t=|:problem	!	!	!	!	!	!	!	!	!
8C/J	.	8c/J	.	8e/J	.	8a/J)	.	8a\	mi-	.	.	.	.
*	*	*	*	*	*	*tremolo	*	*	*	*	*	*	*
!	!	!	!	!LO:TX:b:t=|:problem	!	!	!	!LO:LB:g=original	!	!	!	!	!
8D\L	.	8d\L	.	8f/L	.	8b-\L	.	8.b-T>\L	-se-	4g\	.	4b-\	.
!	!	!	!	!LO:TX:b:t=|:problem	!	!	!	!	!	!	!	!	!
8D\	.	8d\	.	8f/	.	8b-\	.	.	.	.	.	.	.
.	.	.	.	.	.	.	.	32a\LL	.	.	.	.	.
.	.	.	.	.	.	.	.	32b-\JJJ	.	.	.	.	.
!	!	!	!	!LO:TX:b:t=|:problem	!	!	!	!	!	!	!	!	!
8E\	.	8e\	.	8g/	.	8b-\	.	(>8cc\L	-ri-	4g\	.	4b-\	.
!	!	!	!	!LO:TX:b:t=|:problem	!	!	!	!	!	!	!	!	!
8E\J	.	8e\J	.	8g/J	.	8b-\J	.	8b-\J)	.	.	.	.	.
*	*	*	*	*	*	*Xtremolo	*	*	*	*	*	*	*
=23	=23	=23	=23	=23	=23	=23	=23	=23	=23	=23	=23	=23	=23
!	!	!	!	!LO:TX:b:t=|:problem	!	!	!	!	!	!	!	!	!
4C\	.	4e\	.	8g/L	.	8b-\L	.	(>16cc\LL	-cor-	4g\	.	4b-\	.
.	.	.	.	.	.	.	.	16b-\)	.	.	.	.	.
!	!	!	!	!LO:TX:b:t=|:problem	!	!	!	!	!	!	!	!	!
.	.	.	.	8g/	.	8b-\	.	(>16a\	-di-	.	.	.	.
.	.	.	.	.	.	.	.	16b-\JJ)	.	.	.	.	.
!	!	!	!	!LO:TX:b:t=|:problem	!	!	!	!	!	!	!	!	!
4F\	.	4f\	.	8f/	.	8a\	.	4a\	-a	4f\	.	4a\	.
!	!	!	!	!LO:TX:b:t=|:problem	!	!	!	!	!	!	!	!	!
.	.	.	.	8f/J	.	8a\J	.	.	.	.	.	.	.
*	*	*	*	*	*	*tremolo	*	*	*	*	*	*	*
4FF/	.	4F/	.	4f/	.	8ff\L	.	4r	.	2r	.	2r	.
.	.	.	.	.	.	8ff\	.	.	.	.	.	.	.
4r	.	4r	.	4r	.	8ff\	.	8r	.	.	.	.	.
.	.	.	.	.	.	8ff\J	.	8ff\	mi-	.	.	.	.
*	*	*	*	*	*	*Xtremolo	*	*	*	*	*	*	*
!	!	!	!	!	!	!LO:LB:g=original	!	!	!	!	!	!	!
=24	=24	=24	=24	=24	=24	=24	=24	=24	=24	=24	=24	=24	=24
4BB-/	.	4B-\	.	4B-/	.	4g/	.	4g\ 4gg\	-se-	4r	.	4r	.
4BB-/	.	4B-\	.	(<8d/L	.	(<8b-/L	.	(>8b-\L 8bb-\	-ri-	4g\	.	4b-\	.
.	.	.	.	8B-/J)	.	8g/J)	.	8g\J) 8gg\	.	.	.	.	.
4C/	.	4c\	.	(<8B-/L	.	(<8g/L	.	(>8g\L 8gg\	-cor-	4f\	.	4a\	.
.	.	.	.	8A/)	.	8f/)	.	8f\) 8ff\	.	.	.	.	.
4CC/	.	4c\	.	(<8A/	.	(<8f/	.	(>8f\ 8ff\	-di-	4c\	.	4g\	.
.	.	.	.	8G/J)	.	8e/J)	.	8e\J) 8ee\	.	.	.	.	.
=25	=25	=25	=25	=25	=25	=25	=25	=25	=25	=25	=25	=25	=25
4F\	.	4c\	.	4A/	.	4f/	.	2f\ 2ff\	-a	4A/	.	4f\	.
8FF/L	.	8c\L	.	8A/L	.	8f/L	.	.	.	8A/L	.	8f\L	.
8FF/J	.	8c\J	.	8A/J	.	8f/J	.	.	.	8A/J	.	8f\J	.
4FF/	.	4c\	.	4A/	.	4f/	.	2r	.	4A/	.	4f\	.
4r	.	4r	.	4r	.	4r	.	.	.	4r	.	4r	.
!	!	!LO:LB:g=original	!	!	!	!	!	!	!	!	!	!LO:LB:g=original	!
=26	=26	=26	=26	=26	=26	=26	=26	=26	=26	=26	=26	=26	=26
!LO:TX:a:t=|:problem	!	!	!	!	!	!	!	!	!	!	!	!	!
8B-\L	.	8B-/L	.	8f/	.	(>8cc#X\L	.	(>8cc#X\L	Vi-	2r	.	2r	.
!LO:TX:a:t=|:problem	!	!	!	!	!	!	!	!	!	!	!	!	!
8F\	.	8F/	.	4f/	.	8dd\)	.	8dd\)	.	.	.	.	.
!LO:TX:a:t=|:problem	!	!	!	!	!	!	!	!	!	!	!	!	!
8B-\	.	8B-/	.	.	.	(>8cc#\	.	(>8cc#\	.	.	.	.	.
!LO:TX:a:t=|:problem	!	!	!	!	!	!	!	!	!	!	!	!	!
8F\J	.	8F/J	.	4f/	.	8dd\J)	.	8dd\J)	.	.	.	.	.
*	*	*	*	*	*	*tremolo	*	*	*	*	*	*	*
!LO:TX:a:t=|:problem	!	!	!	!	!	!	!	!	!	!	!	!	!
8B-\L	.	8B-/L	.	.	.	8dd\L	.	(>8cc#\L	-ta	2f\	.	2b-\	.
!LO:TX:a:t=|:problem	!	!	!	!	!	!	!	!	!	!	!	!	!
8F\	.	8F/	.	4f/	.	8dd\	.	8dd\)	.	.	.	.	.
!LO:TX:a:t=|:problem	!	!	!	!	!	!	!	!	!	!	!	!	!
8B-\	.	8B-/	.	.	.	8dd\	.	8ff\	dul-	.	.	.	.
!LO:TX:a:t=|:problem	!	!	!	!	!	!	!	!	!	!	!	!	!
8F\J	.	8F/J	.	8f/	.	8dd\J	.	8dd\J	.	.	.	.	.
!	!	!	!	!LO:LB:g=original	!	!	!	!	!	!	!	!	!
=27	=27	=27	=27	=27	=27	=27	=27	=27	=27	=27	=27	=27	=27
!LO:TX:a:t=|:problem	!	!	!	!	!	!	!	!	!	!	!	!	!
8A\L	.	8A/L	.	8f/	.	8cc\L	.	8cc\L	-ce-	4f\	.	4a\	.
!LO:TX:a:t=|:problem	!	!	!	!	!	!	!	!	!	!	!	!	!
8F\	.	8F/	.	4f/	.	8cc\	.	8a\J	.	.	.	.	.
!LO:TX:a:t=|:problem	!	!	!	!	!	!	!	!	!	!	!	!	!
8A\	.	8A/	.	.	.	8cc\	.	4f/	-do	4f\	.	4a\	.
!LO:TX:a:t=|:problem	!	!	!	!	!	!	!	!	!	!	!	!	!
8F\J	.	8F/J	.	8f/	.	8cc\J	.	.	.	.	.	.	.
*	*	*	*	*	*	*Xtremolo	*	*	*	*	*	*	*
!LO:TX:a:t=|:problem	!	!	!	!	!	!	!	!	!	!	!	!	!
8A\L	.	8A/L	.	(<8a/L	.	8cc'>\L	.	2r	.	4f\	.	4a\	.
!LO:TX:a:t=|:problem	!	!	!	!	!	!	!	!	!	!	!	!	!
8F\	.	8F/	.	8g/)	.	(>8cc\	.	.	.	.	.	.	.
!LO:TX:a:t=|:problem	!	!	!	!	!	!	!	!	!	!	!	!	!
8A\	.	8A/	.	(<8g/	.	8b-\	.	.	.	4r	.	4r	.
!LO:TX:a:t=|:problem	!	!	!	!	!	!	!	!	!	!	!	!	!
8F\J	.	8F/J	.	8f/J)	.	8a\J)	.	.	.	.	.	.	.
!LO:LB:g=original	!	!	!	!	!	!	!	!	!	!LO:LB:g=original	!	!	!
=28	=28	=28	=28	=28	=28	=28	=28	=28	=28	=28	=28	=28	=28
*	*	*	*	*	*	*tremolo	*	*	*	*	*	*	*
8B-\L	.	8B-/L	.	8f/	.	8dd\L	.	(>8cc#X\L	vi-	2r	.	2r	.
8F\	.	8F/	.	4f/	.	8dd\	.	8dd\)	.	.	.	.	.
8B-\	.	8B-/	.	.	.	8dd\	.	(>8cc#\	.	.	.	.	.
8F\J	.	8F/J	.	4f/	.	8dd\J	.	8dd\J)	.	.	.	.	.
8B-\L	.	8B-/L	.	.	.	8dd\L	.	(>8cc#\L	-ta	2f\	.	2b-\	.
8F\	.	8F/	.	4f/	.	8dd\	.	8dd\)	.	.	.	.	.
8B-\	.	8B-/	.	.	.	8dd\	.	(>8ff\	dul-	.	.	.	.
8F\J	.	8F/J	.	8f/	.	8dd\J	.	8dd\J)	.	.	.	.	.
!	!	!	!	!	!	!	!	!LO:LB:g=original	!	!	!	!	!
=29	=29	=29	=29	=29	=29	=29	=29	=29	=29	=29	=29	=29	=29
*	*	*	*	*tremolo	*	*	*	*	*	*	*	*	*
8A\L	.	8A/L	.	8f/L	.	8cc\L	.	8cc\L	-ce-	4f\	.	4a\	.
8F\	.	8F/	.	8f/	.	8cc\	.	8a\J	.	.	.	.	.
8A\	.	8A/	.	8f/	.	8cc\	.	4f/	-do	4f\	.	4a\	.
8F\J	.	8F/J	.	8f/J	.	8cc\J	.	.	.	.	.	.	.
*	*	*	*	*Xtremolo	*	*Xtremolo	*	*	*	*	*	*	*
8A\L	.	8A/L	.	(<8a/L	.	8cc\L	.	2r	.	4f\	.	4a\	.
8F\	.	8F/	.	8g/)	.	8cc\	.	.	.	.	.	.	.
8A\	.	8A/	.	(<8g/	.	8b-\	.	.	.	4r	.	4r	.
!	!	!	!	!	!	!LO:TX:a:t=Vi	!	!	!	!	!	!	!
8F\J	.	8F/J	.	8f/J)	.	8a\J	.	.	.	.	.	.	.
!	!	!	!	!	!	!LO:LB:g=original	!	!	!	!	!	!	!
=30	=30	=30	=30	=30	=30	=30	=30	=30	=30	=30	=30	=30	=30
*tremolo	*	*tremolo	*	*	*	*	*	*	*	*	*	*	*
!	!	!	!	!	!	!LO:TX:a:t=De	!	!	!	!	!	!	!
8E\L	.	8c\L	.	4g\	.	2r	.	(>8cc\L	et	2r	.	2r	.
8E\	.	8c\	.	.	.	.	.	8b-\J)	.	.	.	.	.
!	!	!	!	!	!	!	!	!LO:TX:a:t=|:problem	!	!	!	!	!
8E\	.	8c\	.	4b-\	.	.	.	4b-\	spes	.	.	.	.
8E\J	.	8c\J	.	.	.	.	.	.	.	.	.	.	.
*	*	*	*	*2\right	*	*	*	*	*	*	*	*	*
*	*	*	*	*tremolo	*	*	*	*	*	*	*	*	*
8E\L	.	8c\L	.	8b-\L	.	4b-\	.	2r	.	4g\	.	4b-\	.
8E\	.	8c\	.	8b-\	.	.	.	.	.	.	.	.	.
8E\	.	8c\	.	8b-\	.	4gg\	.	.	.	4g\	.	4b-\	.
8E\J	.	8c\J	.	8b-\J	.	.	.	.	.	.	.	.	.
*	*	*	*	*Xtremolo	*	*	*	*	*	*	*	*	*
=31	=31	=31	=31	=31	=31	=31	=31	=31	=31	=31	=31	=31	=31
*	*	*	*	*	*	*	*	*	*ij	*	*	*	*
8F\L	.	2r	.	2r	.	2r	.	(>8b-\L	et	2r	.	2r	.
8F\	.	.	.	.	.	.	.	8a\J)	.	.	.	.	.
!	!	!	!	!	!	!	!	!LO:TX:a:t=|:problem	!	!	!	!	!
8F\	.	.	.	.	.	.	.	4a\	spes	.	.	.	.
8F\J	.	.	.	.	.	.	.	.	.	.	.	.	.
*	*	*	*	*tremolo	*	*	*	*	*	*	*	*	*
8F\L	.	8c\L	.	8a\L	.	4a/	.	2r	.	4f\	.	4a\	.
8F\	.	8c\	.	8a\	.	.	.	.	.	.	.	.	.
8F\	.	8c\	.	8a\	.	4ff\	.	.	.	4f\	.	4a\	.
8F\J	.	8c\J	.	8a\J	.	.	.	.	.	.	.	.	.
*Xtremolo	*	*Xtremolo	*	*Xtremolo	*	*	*	*	*Xij	*	*	*	*
=32	=32	=32	=32	=32	=32	=32	=32	=32	=32	=32	=32	=32	=32
4B-\	.	4B-\	.	4.d/	.	4.b-\	.	4.b-T>\	no-	4r	.	4r	.
4B-\	.	4B-\	.	.	.	.	.	.	.	4g\	.	4b-\	.
.	.	.	.	16c/LL	.	16a/LL	.	16a\LL	-stra	.	.	.	.
.	.	.	.	16B-/JJ	.	16g/JJ	.	16g\JJ	.	.	.	.	.
4c\	.	4c\	.	8A/L	.	8f/L	.	4f/	Sal-	4f\	.	4a\	.
.	.	.	.	8A/	.	8f/	.	.	.	.	.	.	.
4C/	.	4c\	.	8G/	.	8e/	.	4e/	.	4c\	.	4g\	.
.	.	.	.	8G/J	.	8e/J	.	.	.	.	.	.	.
=33	=33	=33	=33	=33	=33	=33	=33	=33	=33	=33	=33	=33	=33
2F\	.	2c\	.	8A/L	.	8f/L	.	4f/	-ve	4A/	.	4f\	.
!	!	!	!	!LO:TX:b:t=|:problem	!	!	!	!	!	!	!	!	!
.	.	.	.	8e/	.	8g/	.	.	.	.	.	.	.
!	!	!	!	!LO:TX:b:t=|:problem	!	!	!	!	!	!	!	!	!
.	.	.	.	8f/	.	8a/	.	4r	.	4r	.	4r	.
!	!	!	!	!LO:TX:b:t=|:problem	!	!	!	!	!	!	!	!	!
.	.	.	.	8g/J	.	8b-/J	.	.	.	.	.	.	.
!	!	!	!	!LO:TX:b:t=|:problem	!	!	!	!	!	!	!	!	!
2r	.	2r	.	8a/L	.	8cc\L	.	2r	.	2r	.	2r	.
!	!	!	!	!LO:TX:b:t=|:problem	!	!	!	!	!	!	!	!	!
.	.	.	.	8b-/	.	8dd\	.	.	.	.	.	.	.
!	!	!	!	!LO:TX:b:t=|:problem	!	!	!	!	!	!	!	!	!
.	.	.	.	8g/	.	8ee\	.	.	.	.	.	.	.
!	!	!	!	!LO:TX:b:t=|:problem	!	!	!	!	!	!	!	!	!
.	.	.	.	8a/J	.	8ff\J	.	.	.	.	.	.	.
!	!	!LO:LB:g=original	!	!LO:LB:g=original	!	!	!	!	!	!	!	!	!
=34	=34	=34	=34	=34	=34	=34	=34	=34	=34	=34	=34	=34	=34
2r	.	2r	.	2r	.	2r	.	(>8cc\L	et	2r	.	2r	.
.	.	.	.	.	.	.	.	8b-\J)	.	.	.	.	.
.	.	.	.	.	.	.	.	4b-\	spes	.	.	.	.
*tremolo	*	*tremolo	*	*tremolo	*	*	*	*	*	*	*	*	*
8E\L	.	8c\L	.	8b-\L	.	4b-\	.	2r	.	4g\	.	4b-\	.
8E\	.	8c\	.	8b-\	.	.	.	.	.	.	.	.	.
8E\	.	8c\	.	8b-\	.	4gg\	.	.	.	4g\	.	4b-\	.
8E\J	.	8c\J	.	8b-\J	.	.	.	.	.	.	.	.	.
!	!	!	!	!	!	!	!	!	!	!	!	!LO:LB:g=original	!
=35	=35	=35	=35	=35	=35	=35	=35	=35	=35	=35	=35	=35	=35
*	*	*	*	*	*	*	*	*	*ij	*	*	*	*
2r	.	2r	.	2r	.	2r	.	(>8b-\L	et	2r	.	2r	.
.	.	.	.	.	.	.	.	8a\J)	.	.	.	.	.
.	.	.	.	.	.	.	.	4a\	spes	.	.	.	.
8F\L	.	8c\L	.	8a\L	.	4a/	.	2r	.	4f\	.	4a\	.
8F\	.	8c\	.	8a\	.	.	.	.	.	.	.	.	.
8F\	.	8c\	.	8a\	.	4ff\	.	.	.	4f\	.	4a\	.
8F\J	.	8c\J	.	8a\J	.	.	.	.	.	.	.	.	.
*Xtremolo	*	*Xtremolo	*	*Xtremolo	*	*	*	*	*Xij	*	*	*	*
=36	=36	=36	=36	=36	=36	=36	=36	=36	=36	=36	=36	=36	=36
4B-\	.	4B-\	.	4.d/	.	4.b-\	.	4.b-\ 4.bb-\	no-	4r	.	4r	.
4B-\	.	4B-\	.	.	.	.	.	.	.	4g\	.	4b-\	.
.	.	.	.	16c/LL	.	16a/LL	.	16a\LL 16aa\	-stra	.	.	.	.
.	.	.	.	16B-/JJ	.	16g/JJ	.	16g\JJ 16gg\	.	.	.	.	.
4c\	.	4c\	.	(<8B-/L	.	8g/L	.	(>8g\L 8gg\	Sal-	4f\	.	4a\	.
.	.	.	.	8A/)	.	8f/	.	8f\) 8ff\	.	.	.	.	.
4C/	.	4c\	.	(<8A/	.	8f/	.	(>8f\ 8ff\	.	4c\	.	4g\	.
.	.	.	.	8G/J)	.	8e/J	.	8e\J) 8ee\	.	.	.	.	.
!LO:LB:g=original	!	!	!	!	!	!	!	!	!	!LO:LB:g=original	!	!	!
=37	=37	=37	=37	=37	=37	=37	=37	=37	=37	=37	=37	=37	=37
4F\	.	4c\	.	4A/	.	4f/	.	4f\ 4ff\	-ve	4A/	.	4f\	.
8FF/L	.	8c\L	.	8A/L	.	8f/L	.	4r	.	8A/L	.	8f\L	.
8FF/J	.	8c\J	.	8A/J	.	8f/J	.	.	.	8A/J	.	8f\J	.
4FF/	.	4c\	.	4A/	.	4f/	.	2r	.	4A/	.	4f\	.
!	!	!	!	!	!	!LO:TX:a:t=r[e]	!	!	!	!	!	!	!
4r	.	4r	.	4r	.	4r	.	.	.	4r	.	4r	.
!	!	!	!	!	!	!LO:LB:g=original	!	!LO:LB:g=original	!	!	!	!	!
=38	=38	=38	=38	=38	=38	=38	=38	=38	=38	=38	=38	=38	=38
!	!	!	!	!	!	!LO:TX:a:t=Tro	!	!	!	!	!	!	!
!	!	!	!	!	!	!LO:TX:a:t=1	!	!	!	!LO:TX:a:t=23	!	!LO:TX:a:t=23	!
1r	.	1r	.	1r	.	1r	.	2a\	ad	00r	.	00r	.
.	.	.	.	.	.	.	.	4dd\	te	.	.	.	.
.	.	.	.	.	.	.	.	4dd\	cla-	.	.	.	.
=39	=39	=39	=39	=39	=39	=39	=39	=39	=39	=39-	=39	=39-	=39
*	*	*	*	*	*	*^	*	*	*	*	*	*	*
!	!	!LO:TX:a:t=|:problem	!	!	!	!LO:TX:a:t=cis	!	!	!	!	!	!	!	!
4G\	.	4e\	.	4A/	.	4cc#X/	4g\	.	4cc#X\	-ma-	.	.	.	.
!	!	!LO:TX:a:t=|:problem	!	!	!	!	!	!	!	!	!	!	!	!
4F\	.	4d\	.	4A/	.	4dd\	2.ryy	.	4dd\	-mus	.	.	.	.
2r	.	2r	.	2r	.	2r	.	.	2r	.	.	.	.	.
*	*	*	*	*	*	*v	*v	*	*	*	*	*	*	*
=40	=40	=40	=40	=40	=40	=40	=40	=40	=40	=40-	=40	=40-	=40
!	!	!	!	!	!	!LO:TX:a:t=1	!	!	!	!	!	!	!
1r	.	1r	.	1r	.	1r	.	2g\	Ad	.	.	.	.
.	.	.	.	.	.	.	.	4cc\	te	.	.	.	.
.	.	.	.	.	.	.	.	4cc\	cla-	.	.	.	.
=41	=41	=41	=41	=41	=41	=41	=41	=41	=41	=41-	=41	=41-	=41
4F\	.	4d\	.	4G/	.	4bn\	.	4bn\	-ma-	.	.	.	.
4E\	.	4c\	.	4G/	.	4cc\	.	4cc\	-mus	.	.	.	.
2r	.	2r	.	8r	.	8r	.	2r	.	.	.	.	.
!	!	!	!	!LO:TX:b:t=|:problem	!	!	!	!	!	!	!	!	!
.	.	.	.	8g/L	.	8gg'>\L	.	.	.	.	.	.	.
!	!	!	!	!LO:TX:b:t=|:problem	!	!	!	!	!	!	!	!	!
.	.	.	.	8g/	.	8gg'>\	.	.	.	.	.	.	.
!	!	!	!	!LO:TX:b:t=|:problem	!	!	!	!	!	!	!	!	!
.	.	.	.	8g/J	.	8gg'>\J	.	.	.	.	.	.	.
=42	=42	=42	=42	=42	=42	=42	=42	=42	=42	=42-	=42	=42-	=42
!	!	!	!	!	!	!	!	!LO:TX:b:t=1.	!	!	!	!	!
8D/L	.	8d/L	.	(<8g/L	.	(>8gg\L	.	1r	.	00r	.	00r	.
8GG/	.	8G/	.	8f/)	.	8ff\)	.	.	.	.	.	.	.
8D/	.	8d/	.	(<8e/	.	(>8ee\	.	.	.	.	.	.	.
8GG/J	.	8G/J	.	8d/J)	.	8dd\J)	.	.	.	.	.	.	.
8F/L	.	8f/L	.	8c/L	.	(>8cc\L	.	.	.	.	.	.	.
8GG/	.	8G/	.	8Bn/	.	8bn\)	.	.	.	.	.	.	.
8F/	.	8f/	.	8A/	.	(>8a\	.	.	.	.	.	.	.
8GG/J	.	8G/J	.	8G/J	.	8g\J)	.	.	.	.	.	.	.
!	!	!	!	!LO:LB:g=original	!	!	!	!	!	!	!	!	!
=43	=43	=43	=43	=43	=43	=43	=43	=43	=43	=43-	=43	=43-	=43
8E/L	.	8e/L	.	4.c/	.	4.cc\	.	4.cc\	ex-	.	.	.	.
8GG/	.	8G/	.	.	.	.	.	.	.	.	.	.	.
8E/	.	8e/	.	.	.	.	.	.	.	.	.	.	.
8GG/J	.	8G/J	.	16d/LL	.	16dd\LL	.	16dd\LL	-u-	.	.	.	.
.	.	.	.	16e/JJ	.	16ee\JJ	.	16ee\JJ	.	.	.	.	.
!	!	!LO:LB:g=original	!	!	!	!	!	!	!	!	!	!	!
8BBn/L	.	8Bn/L	.	8d/L	.	8dd\L	.	4dd\	-les	.	.	.	.
!	!	!	!	!LO:TX:b:t=|:problem	!	!	!	!	!	!	!	!	!
8GG/	.	8G/	.	8g/	.	8gg\	.	.	.	.	.	.	.
!	!	!	!	!LO:TX:b:t=|:problem	!	!	!	!	!	!	!	!	!
8BB/	.	8B/	.	8g/	.	8gg\	.	4r	.	.	.	.	.
!	!	!	!	!LO:TX:b:t=|:problem	!	!	!	!	!	!	!	!	!
8GG/J	.	8G/J	.	8g/J	.	8gg\J	.	.	.	.	.	.	.
=44	=44	=44	=44	=44	=44	=44	=44	=44	=44	=44-	=44	=44-	=44
8D/L	.	8d/L	.	(<8g/L	.	(>8gg\L	.	2r	.	.	.	.	.
8GG/	.	8G/	.	8f/)	.	8ff\)	.	.	.	.	.	.	.
8D/	.	8d/	.	(<8e/	.	(>8ee\	.	.	.	.	.	.	.
8GG/J	.	8G/J	.	8d/J)	.	8dd\J)	.	.	.	.	.	.	.
8F/L	.	8f/L	.	(<8c/L	.	(>8cc\L	.	(>8cc\L	Fi-	.	.	.	.
8GG/	.	8G/	.	8Bn/)	.	8bn\)	.	8bn\)	.	.	.	.	.
8F/	.	8f/	.	(<8A/	.	(>8a\	.	(>8a\	-ly	.	.	.	.
8GG/J	.	8G/J	.	8G/J)	.	8g\J)	.	8g\J)	.	.	.	.	.
!	!	!	!	!	!	!LO:LB:g=original	!	!	!	!	!	!	!
=45	=45	=45	=45	=45	=45	=45	=45	=45	=45	=45-	=45	=45-	=45
8E/L	.	8e/L	.	4.c/	.	4.cc\	.	4.cc\	E-	.	.	.	.
8GG/	.	8G/	.	.	.	.	.	.	.	.	.	.	.
8E/	.	8e/	.	.	.	.	.	.	.	.	.	.	.
8GG/J	.	8G/J	.	(<16d/LL	.	16dd\LL	.	16dd\LL	.	.	.	.	.
.	.	.	.	16e/JJ)	.	16ee\JJ	.	16ee\JJ	.	.	.	.	.
!LO:LB:g=original	!	!	!	!LO:TX:b:t=|:problem	!	!	!	!	!	!	!	!	!
8BBn/L	.	8Bn/L	.	8d/L	.	8dd\L	.	4dd\	-vae	.	.	.	.
!	!	!	!	!LO:TX:b:t=|:problem	!	!	!	!	!	!	!	!	!
8GG/	.	8G/	.	8g/	.	8gg'>\	.	.	.	.	.	.	.
!	!	!	!	!LO:TX:b:t=|:problem	!	!	!	!	!	!	!	!	!
8BB/	.	8B/	.	8g/	.	8gg'>\	.	4r	.	.	.	.	.
!	!	!	!	!LO:TX:b:t=|:problem	!	!	!	!	!	!	!	!	!
8GG/J	.	8G/J	.	8g/J	.	8gg'>\J	.	.	.	.	.	.	.
=46	=46	=46	=46	=46	=46	=46	=46	=46	=46	=46-	=46	=46-	=46
!	!	!	!	!	!	!	!	!LO:TX:b:t=1.	!	!	!	!	!
8D\L	.	8d/L	.	(<8g/L	.	(>8gg\L	.	1r	.	00r	.	00r	.
8GG\	.	8G/	.	8f/)	.	8ff\)	.	.	.	.	.	.	.
8D\	.	8d/	.	(<8e/	.	(>8ee\	.	.	.	.	.	.	.
8GG\J	.	8G/J	.	8d/J)	.	8dd\J)	.	.	.	.	.	.	.
!!mixed beam:problem
!LO:TX:t=P:problem=mixed beam	!	!	!	!	!	!	!	!	!	!	!	!	!
8F\L	.	8f/L	.	(<8c/L	.	(>8cc\L	.	.	.	.	.	.	.
8GG/	.	8G/	.	8Bn/)	.	8bn\)	.	.	.	.	.	.	.
8F\	.	8f/	.	(<8A/	.	(>8a\	.	.	.	.	.	.	.
8GG/J	.	8G/J	.	8G/J)	.	8g\J)	.	.	.	.	.	.	.
=47	=47	=47	=47	=47	=47	=47	=47	=47	=47	=47-	=47	=47-	=47
!!mixed beam:problem
*tremolo	*	*tremolo	*	*	*	*	*	*	*	*	*	*	*
!	!	!	!	!LO:TX:t=P:problem=mixed beam	!	!	!	!	!	!	!	!	!
8E\L	.	8e\L	.	8c/L	.	8cc\L	.	2cc\	E-	.	.	.	.
8E\	.	8e\	.	8cc\	.	8gg\	.	.	.	.	.	.	.
8E\	.	8e\	.	8cc\	.	8gg\	.	.	.	.	.	.	.
8E\J	.	8e\J	.	8cc\J	.	8gg\J	.	.	.	.	.	.	.
*	*	*	*	*tremolo	*	*	*	*	*	*	*	*	*
8E\L	.	8e\L	.	8cc\L	.	8gg\L	.	4gg\	-xu-	.	.	.	.
8E\	.	8e\	.	8cc\	.	8gg\	.	.	.	.	.	.	.
8E\	.	8e\	.	8cc\	.	8gg\	.	4gg#X\	-les	.	.	.	.
8E\J	.	8e\J	.	8cc\J	.	8gg#X\J	.	.	.	.	.	.	.
!	!	!	!	!	!	!	!	!LO:LB:g=original	!	!	!	!	!
=48	=48	=48	=48	=48	=48	=48	=48	=48	=48	=48-	=48	=48-	=48
8F\L	.	8f\L	.	8cc\L	.	4aa\	.	2aat>\	fi-	.	.	.	.
8F\	.	8f\	.	8cc\	.	.	.	.	.	.	.	.	.
8F\	.	8f\	.	8cc\	.	4aa\	.	.	.	.	.	.	.
8F\J	.	8f\J	.	8cc\J	.	.	.	.	.	.	.	.	.
2r	.	2r	.	2r	.	2r	.	(>8gg\L	.	.	.	.	.
.	.	.	.	.	.	.	.	8ff\)	.	.	.	.	.
.	.	.	.	.	.	.	.	(>8ee\	-ly	.	.	.	.
.	.	.	.	.	.	.	.	8dd\J)	.	.	.	.	.
=49	=49	=49	=49	=49	=49	=49	=49	=49	=49	=49-	=49	=49-	=49
*	*	*	*	*	*	*tremolo	*	*	*	*	*	*	*
!	!	!	!	!	!LO:DY:b:t=forte	!	!	!	!	!	!	!	!
8G\L	.	8g\L	.	16ee\LL	ff	16ccc\LL	.	1cc	E-	.	.	.	.
.	.	.	.	16ee\	.	16ccc\	.	.	.	.	.	.	.
8G\	.	8g\	.	16ee\	.	16ccc\	.	.	.	.	.	.	.
.	.	.	.	16ee\	.	16ccc\	.	.	.	.	.	.	.
8G\	.	8g\	.	16ee\	.	16ccc\	.	.	.	.	.	.	.
.	.	.	.	16ee\	.	16ccc\	.	.	.	.	.	.	.
8G\J	.	8g\J	.	16ee\	.	16ccc\	.	.	.	.	.	.	.
.	.	.	.	16ee\JJ	.	16ccc\JJ	.	.	.	.	.	.	.
8G\L	.	8g\L	.	16ee\LL	.	16ccc\LL	.	.	.	.	.	.	.
.	.	.	.	16ee\	.	16ccc\	.	.	.	.	.	.	.
8G\	.	8g\	.	16ee\	.	16ccc\	.	.	.	.	.	.	.
.	.	.	.	16ee\	.	16ccc\	.	.	.	.	.	.	.
8G\	.	8g\	.	16ee\	.	16ccc\	.	.	.	.	.	.	.
.	.	.	.	16ee\	.	16ccc\	.	.	.	.	.	.	.
8G\J	.	8g\J	.	16ee\	.	16ccc\	.	.	.	.	.	.	.
.	.	.	.	16ee\JJ	.	16ccc\JJ	.	.	.	.	.	.	.
=50	=50	=50	=50	=50	=50	=50	=50	=50	=50	=50-	=50	=50-	=50
8GG/L	.	8G/L	.	16dd\LL	.	16ccc\LL	.	1ddT>	.	00r	.	00r	.
.	.	.	.	16dd\	.	16ccc\	.	.	.	.	.	.	.
8GG/	.	8G/	.	16dd\	.	16ccc\	.	.	.	.	.	.	.
.	.	.	.	16dd\	.	16ccc\	.	.	.	.	.	.	.
8GG/	.	8G/	.	16dd\	.	16ccc\	.	.	.	.	.	.	.
.	.	.	.	16dd\	.	16ccc\	.	.	.	.	.	.	.
8GG/J	.	8G/J	.	16dd\	.	16ccc\	.	.	.	.	.	.	.
.	.	.	.	16dd\JJ	.	16ccc\JJ	.	.	.	.	.	.	.
8GG/L	.	8G/L	.	16dd\LL	.	16bbn\LL	.	.	.	.	.	.	.
.	.	.	.	16dd\	.	16bbn\	.	.	.	.	.	.	.
8GG/	.	8G/	.	16dd\	.	16bbn\	.	.	.	.	.	.	.
.	.	.	.	16dd\	.	16bbn\	.	.	.	.	.	.	.
8GG/	.	8G/	.	16dd\	.	16bbn\	.	.	.	.	.	.	.
.	.	.	.	16dd\	.	16bbn\	.	.	.	.	.	.	.
8GG/J	.	8G/J	.	16dd\	.	16bbn\	.	.	.	.	.	.	.
.	.	.	.	16dd\JJ	.	16bbn\JJ	.	.	.	.	.	.	.
*Xtremolo	*	*Xtremolo	*	*Xtremolo	*	*Xtremolo	*	*	*	*	*	*	*
!	!	!LO:LB:g=original	!	!LO:LB:g=original	!	!	!	!	!	!	!	!	!
=51	=51	=51	=51	=51	=51	=51	=51	=51	=51	=51-	=51	=51-	=51
4C\	.	4c\	.	4cc\	.	4ccc\	.	2cc\	-vae	.	.	.	.
!!mixed beam:problem
!	!	!	!	!	!	!LO:TX:t=P:problem:problem=mixed beam	!	!	!	!	!	!	!
8E\L	.	8G\L	.	4r	.	16g\LL	.	.	.	.	.	.	.
.	.	.	.	.	.	16gg\	.	.	.	.	.	.	.
8G\J	.	8D\J	.	.	.	16g\	.	.	.	.	.	.	.
.	.	.	.	.	.	16gg\JJ	.	.	.	.	.	.	.
*	*	*	*	*	*	*tremolo	*	*	*	*	*	*	*
!	!	!	!	!	!	!LO:TX:t=P:global:problem=tremolo zapisane w inny sposób; jedna nuta pod drugą do końca 56 taktu	!	!	!	!	!	!	!
4c\	.	4BB-/	.	4r	.	16g\LL	.	2r	.	.	.	.	.
.	.	.	.	.	.	16gg\	.	.	.	.	.	.	.
.	.	.	.	.	.	16g\	.	.	.	.	.	.	.
.	.	.	.	.	.	16gg\	.	.	.	.	.	.	.
8r	.	8r	.	8r	.	16g\	.	.	.	.	.	.	.
.	.	.	.	.	.	16gg\	.	.	.	.	.	.	.
!	!	!LO:TX:a:t=|:problem	!	!	!	!	!	!	!	!	!	!	!
8c\	.	8c\	.	8e/	.	16g\	.	.	.	.	.	.	.
.	.	.	.	.	.	16gg\JJ	.	.	.	.	.	.	.
=52	=52	=52	=52	=52	=52	=52	=52	=52	=52	=52-	=52	=52-	=52
!LO:TX:a:t=|:problem	!	!LO:TX:a:t=|:problem	!	!LO:TX:b:t=|:problem	!	!	!	!LO:TX:b:t=9.	!	!	!	!	!
4Bn\	.	4Bn\	.	4d/	.	16g\LL	.	00r	.	.	.	.	.
.	.	.	.	.	.	16gg\	.	.	.	.	.	.	.
.	.	.	.	.	.	16g\	.	.	.	.	.	.	.
.	.	.	.	.	.	16gg\	.	.	.	.	.	.	.
!LO:TX:a:t=|:problem	!	!LO:TX:a:t=|:problem	!	!LO:TX:b:t=|:problem	!	!	!	!	!	!	!	!	!
4c\	.	4c\	.	4e/	.	16g\	.	.	.	.	.	.	.
.	.	.	.	.	.	16gg\	.	.	.	.	.	.	.
.	.	.	.	.	.	16g\	.	.	.	.	.	.	.
.	.	.	.	.	.	16gg\JJ	.	.	.	.	.	.	.
!LO:TX:a:t=|:problem	!	!LO:TX:a:t=|:problem	!	!LO:TX:b:t=|:problem	!	!	!	!	!	!	!	!	!
4d\	.	4d\	.	4f/	.	16g\LL	.	.	.	.	.	.	.
.	.	.	.	.	.	16gg\	.	.	.	.	.	.	.
.	.	.	.	.	.	16g\	.	.	.	.	.	.	.
.	.	.	.	.	.	16gg\	.	.	.	.	.	.	.
!LO:TX:a:t=|:problem	!	!LO:TX:a:t=|:problem	!	!LO:TX:b:t=|:problem	!	!	!	!	!	!	!	!	!
4B\	.	4B\	.	4d/	.	16g\	.	.	.	.	.	.	.
.	.	.	.	.	.	16gg\	.	.	.	.	.	.	.
.	.	.	.	.	.	16g\	.	.	.	.	.	.	.
.	.	.	.	.	.	16gg\JJ	.	.	.	.	.	.	.
=53	=53	=53	=53	=53	=53	=53	=53	=53-	=53	=53-	=53	=53-	=53
!LO:TX:a:t=|:problem	!	!	!	!	!	!	!	!	!	!	!	!	!
4c\	.	4c\	.	4e/	.	16g\LL	.	.	.	.	.	.	.
.	.	.	.	.	.	16gg\	.	.	.	.	.	.	.
.	.	.	.	.	.	16g\	.	.	.	.	.	.	.
.	.	.	.	.	.	16gg\	.	.	.	.	.	.	.
4r	.	4r	.	4r	.	16g\	.	.	.	.	.	.	.
.	.	.	.	.	.	16gg\	.	.	.	.	.	.	.
.	.	.	.	.	.	16g\	.	.	.	.	.	.	.
.	.	.	.	.	.	16gg\JJ	.	.	.	.	.	.	.
4r	.	4r	.	4r	.	16g\LL	.	.	.	.	.	.	.
.	.	.	.	.	.	16gg\	.	.	.	.	.	.	.
.	.	.	.	.	.	16g\	.	.	.	.	.	.	.
.	.	.	.	.	.	16gg\	.	.	.	.	.	.	.
!LO:TX:a:t=|:problem	!	!	!	!	!	!	!	!	!	!	!	!	!
4e\	.	4e\	.	8r	.	16g\	.	.	.	.	.	.	.
.	.	.	.	.	.	16gg\	.	.	.	.	.	.	.
.	.	.	.	8c/	.	16g\	.	.	.	.	.	.	.
.	.	.	.	.	.	16gg\JJ	.	.	.	.	.	.	.
!LO:LB:g=original	!	!	!	!	!	!	!	!	!	!	!	!	!
=54	=54	=54	=54	=54	=54	=54	=54	=54-	=54	=54-	=54	=54-	=54
!LO:TX:a:t=|:problem	!	!LO:TX:a:t=|:problem	!	!	!	!	!	!	!	!	!	!	!
4d\	.	4d\	.	4Bn/	.	16g\LL	.	.	.	00r	.	00r	.
.	.	.	.	.	.	16gg\	.	.	.	.	.	.	.
.	.	.	.	.	.	16g\	.	.	.	.	.	.	.
.	.	.	.	.	.	16gg\	.	.	.	.	.	.	.
!LO:TX:a:t=|:problem	!	!LO:TX:a:t=|:problem	!	!	!	!	!	!	!	!	!	!	!
4e\	.	4e\	.	4c/	.	16g\	.	.	.	.	.	.	.
.	.	.	.	.	.	16gg\	.	.	.	.	.	.	.
.	.	.	.	.	.	16g\	.	.	.	.	.	.	.
.	.	.	.	.	.	16gg\JJ	.	.	.	.	.	.	.
!LO:TX:a:t=|:problem	!	!LO:TX:a:t=|:problem	!	!LO:TX:b:t=|:problem	!	!	!	!	!	!	!	!	!
4f\	.	4f\	.	4d/	.	16g\LL	.	.	.	.	.	.	.
.	.	.	.	.	.	16gg\	.	.	.	.	.	.	.
.	.	.	.	.	.	16g\	.	.	.	.	.	.	.
.	.	.	.	.	.	16gg\	.	.	.	.	.	.	.
!LO:TX:a:t=|:problem	!	!LO:TX:a:t=|:problem	!	!LO:TX:b:t=|:problem	!	!	!	!	!	!	!	!	!
4d\	.	4d\	.	4B/	.	16g\	.	.	.	.	.	.	.
.	.	.	.	.	.	16gg\	.	.	.	.	.	.	.
.	.	.	.	.	.	16g\	.	.	.	.	.	.	.
.	.	.	.	.	.	16gg\JJ	.	.	.	.	.	.	.
=55	=55	=55	=55	=55	=55	=55	=55	=55-	=55	=55-	=55	=55-	=55
!LO:TX:a:t=|:problem	!	!	!	!	!	!	!	!	!	!	!	!	!
4e\	.	4e\	.	4c/	.	16g\LL	.	.	.	.	.	.	.
.	.	.	.	.	.	16gg\	.	.	.	.	.	.	.
.	.	.	.	.	.	16g\	.	.	.	.	.	.	.
.	.	.	.	.	.	16gg\	.	.	.	.	.	.	.
4r	.	4r	.	4r	.	16g\	.	.	.	.	.	.	.
.	.	.	.	.	.	16gg\	.	.	.	.	.	.	.
.	.	.	.	.	.	16g\	.	.	.	.	.	.	.
.	.	.	.	.	.	16gg\JJ	.	.	.	.	.	.	.
4r	.	4r	.	4r	.	16g\LL	.	.	.	.	.	.	.
.	.	.	.	.	.	16gg\	.	.	.	.	.	.	.
.	.	.	.	.	.	16g\	.	.	.	.	.	.	.
.	.	.	.	.	.	16gg\	.	.	.	.	.	.	.
!LO:TX:a:t=|:problem	!	!	!	!	!	!	!	!	!	!	!	!	!
4c\	.	4c\	.	8r	.	16g\	.	.	.	.	.	.	.
.	.	.	.	.	.	16gg\	.	.	.	.	.	.	.
.	.	.	.	8e/	.	16g\	.	.	.	.	.	.	.
.	.	.	.	.	.	16gg\JJ	.	.	.	.	.	.	.
=56	=56	=56	=56	=56	=56	=56	=56	=56-	=56	=56-	=56	=56-	=56
!LO:TX:a:t=|:problem	!	!LO:TX:a:t=|:problem	!	!LO:TX:b:t=|:problem	!	!	!	!	!	!	!	!	!
4Bn\	.	4Bn\	.	4d/	.	16g\LL	.	00r	.	.	.	.	.
.	.	.	.	.	.	16gg\	.	.	.	.	.	.	.
.	.	.	.	.	.	16g\	.	.	.	.	.	.	.
.	.	.	.	.	.	16gg\	.	.	.	.	.	.	.
!LO:TX:a:t=|:problem	!	!LO:TX:a:t=|:problem	!	!LO:TX:b:t=|:problem	!	!	!	!	!	!	!	!	!
4c\	.	4c\	.	4e/	.	16g\	.	.	.	.	.	.	.
.	.	.	.	.	.	16gg\	.	.	.	.	.	.	.
.	.	.	.	.	.	16g\	.	.	.	.	.	.	.
.	.	.	.	.	.	16gg\JJ	.	.	.	.	.	.	.
!LO:TX:a:t=|:problem	!	!LO:TX:a:t=|:problem	!	!LO:TX:b:t=|:problem	!	!	!	!	!	!	!	!	!
4d\	.	4d\	.	4f/	.	16g\LL	.	.	.	.	.	.	.
.	.	.	.	.	.	16gg\	.	.	.	.	.	.	.
.	.	.	.	.	.	16g\	.	.	.	.	.	.	.
.	.	.	.	.	.	16gg\	.	.	.	.	.	.	.
!LO:TX:a:t=|:problem	!	!LO:TX:a:t=|:problem	!	!LO:TX:b:t=|:problem	!	!	!	!	!	!	!	!	!
4Bn\	.	4B\	.	4d/	.	16g\	.	.	.	.	.	.	.
.	.	.	.	.	.	16gg\	.	.	.	.	.	.	.
.	.	.	.	.	.	16g\	.	.	.	.	.	.	.
.	.	.	.	.	.	16gg\JJ	.	.	.	.	.	.	.
=57	=57	=57	=57	=57	=57	=57	=57	=57-	=57	=57-	=57	=57-	=57
!!mixed beam:problem
!	!	!	!	!LO:TX:t=P:problem=mixed beam	!	!	!	!	!	!	!	!	!
8c\L	.	8c\L	.	16e/LL	.	2e/ 2cc/ 2gg/	.	.	.	.	.	.	.
.	.	.	.	16cc\	.	.	.	.	.	.	.	.	.
8E\	.	8e\	.	16cc\	.	.	.	.	.	.	.	.	.
.	.	.	.	16cc\JJ	.	.	.	.	.	.	.	.	.
*	*	*	*	*tremolo	*	*	*	*	*	*	*	*	*
8E\	.	8e\	.	16cc\LL	.	.	.	.	.	.	.	.	.
.	.	.	.	16cc\	.	.	.	.	.	.	.	.	.
8E\J	.	8e\J	.	16cc\	.	.	.	.	.	.	.	.	.
.	.	.	.	16cc\JJ	.	.	.	.	.	.	.	.	.
*tremolo	*	*tremolo	*	*	*	*	*	*	*	*	*	*	*
8E\L	.	8e\L	.	16cc\LL	.	4e/ 4cc/ 4gg/	.	.	.	.	.	.	.
.	.	.	.	16cc\	.	.	.	.	.	.	.	.	.
8E\	.	8e\	.	16cc\	.	.	.	.	.	.	.	.	.
.	.	.	.	16cc\	.	.	.	.	.	.	.	.	.
8E\	.	8e\	.	16cc\	.	4gg#X\	.	.	.	.	.	.	.
.	.	.	.	16cc\	.	.	.	.	.	.	.	.	.
8E\J	.	8e\J	.	16cc\	.	.	.	.	.	.	.	.	.
.	.	.	.	16cc\JJ	.	.	.	.	.	.	.	.	.
=58	=58	=58	=58	=58	=58	=58	=58	=58-	=58	=58-	=58	=58-	=58
8F\L	.	8f\L	.	16cc\LL	.	2aa\	.	.	.	0r	.	0r	.
.	.	.	.	16cc\	.	.	.	.	.	.	.	.	.
8F\	.	8f\	.	16cc\	.	.	.	.	.	.	.	.	.
.	.	.	.	16cc\	.	.	.	.	.	.	.	.	.
8F\	.	8f\	.	16cc\	.	.	.	.	.	.	.	.	.
.	.	.	.	16cc\	.	.	.	.	.	.	.	.	.
8F\J	.	8f\J	.	16cc\	.	.	.	.	.	.	.	.	.
.	.	.	.	16cc\JJ	.	.	.	.	.	.	.	.	.
8F\L	.	8f\L	.	16cc\LL	.	4bb-\	.	.	.	.	.	.	.
.	.	.	.	16cc\	.	.	.	.	.	.	.	.	.
8F\	.	8f\	.	16cc\	.	.	.	.	.	.	.	.	.
.	.	.	.	16cc\	.	.	.	.	.	.	.	.	.
8F\	.	8f\	.	16cc\	.	4ccc\	.	.	.	.	.	.	.
.	.	.	.	16cc\	.	.	.	.	.	.	.	.	.
8F\J	.	8f\J	.	16cc\	.	.	.	.	.	.	.	.	.
.	.	.	.	16cc\JJ	.	.	.	.	.	.	.	.	.
=59	=59	=59	=59	=59	=59	=59	=59	=59-	=59	=59-	=59	=59-	=59
8G\L	.	8g\L	.	16cc\LL	.	4gg\	.	.	.	.	.	.	.
.	.	.	.	16cc\	.	.	.	.	.	.	.	.	.
8G\	.	8g\	.	16cc\	.	.	.	.	.	.	.	.	.
.	.	.	.	16cc\	.	.	.	.	.	.	.	.	.
8G\	.	8g\	.	16cc\	.	8ee\L	.	.	.	.	.	.	.
.	.	.	.	16cc\	.	.	.	.	.	.	.	.	.
8G\J	.	8g\J	.	16cc\	.	8cc\J	.	.	.	.	.	.	.
.	.	.	.	16cc\JJ	.	.	.	.	.	.	.	.	.
!	!	!	!	!	!	!LO:LB:g=original	!	!	!	!	!	!	!
.	.	.	.	.	.	8qqee/	.	.	.	.	.	.	.
8GG/L	.	8G/L	.	16cc\LL	.	2dd\	.	.	.	.	.	.	.
.	.	.	.	16cc\	.	.	.	.	.	.	.	.	.
8GG/	.	8G/	.	16cc\	.	.	.	.	.	.	.	.	.
.	.	.	.	16cc\JJ	.	.	.	.	.	.	.	.	.
8GG/	.	8G/	.	16bn\LL	.	.	.	.	.	.	.	.	.
.	.	.	.	16bn\	.	.	.	.	.	.	.	.	.
8GG/J	.	8G/J	.	16bn\	.	.	.	.	.	.	.	.	.
.	.	.	.	16bn\JJ	.	.	.	.	.	.	.	.	.
*Xtremolo	*	*Xtremolo	*	*Xtremolo	*	*	*	*	*	*	*	*	*
!	!	!	!	!LO:LB:g=original	!	!	!	!	!	!	!	!	!
=60	=60	=60	=60	=60	=60	=60	=60	=60-	=60	=60-	=60	=60-	=60
4C\	.	4c\	.	4e/	.	2cc\	.	1r	.	1r	.	1r	.
8CC/L	.	4C/	.	8e/L	.	.	.	.	.	.	.	.	.
8CC/J	.	.	.	8e/J	.	.	.	.	.	.	.	.	.
4CC/	.	4C/	.	2e/	.	2r	.	.	.	.	.	.	.
4r	.	4ryy	.	.	.	.	.	.	.	.	.	.	.
==	==	==	==	==	==	==	==	==	==	==	==	==	==
*-	*-	*-	*-	*-	*-	*-	*-	*-	*-	*-	*-	*-	*-
!!!system-decoration: [(g1)][(g2)][(g3)]
!!!RDF**kern: > = above
!!!RDF**kern: < = below
!!!AIN: 1 cbass 2 cor 1 soprn 1 viola 2 violn
!!!ENC: Andrzej Gręziak
!!!END: 2020-10-05
!!!EED: Jędrzej Mróz
!!!EST: 2022-01-27
